X:1
T:The Sons of Liberty (1)
M:2/2
L:1/4
K:G
 z2 z B| A G E D| G3/2- A/2 B B| A G E D| E3 E| G G B d| e2 g e| d d de/2-d/2|\
 B3 E| G G B d| e2 g e| d d eB/2-A/2| B2 d2| BA/2-G/2 E E| G3/2 A/2 B B|\
 A G E D| E3 z|

